X:5
T:Good King Wenceslas
H: 
C:Trad
O:Kevin Fraser
Z:Kevin Fraser
Q:1/4=90
K:HP
M:4/4
L:1/4
R:March
V:gstem=up stem=down
%%MIDI gracedivider 4
%%MIDI gchord
%%MIDI beatstring
w:
T: Good King Wenceslas
 |: {g}d {A}d {g}d e | {g}d {A}d {g}A2     | {g}B {e}A {g}B C | {Gdc}d2 {gdc}d2 |
    {g}d {A}d {g}d e | {g}d {A}d {g}A2     | {g}B {e}A {g}B C | {Gdc}d2 {gdc}d2 |
    {ag}a  g {fg}f e | {fg}f   e {Gdc}d2   | {g}B {e}A {g}B c | {Gdc}d2 {gdc}d2 |
    {g}A {G}A {g}B c | {Gdc}d {c}d {gef}e2 | {ag}a  g {fg}f e | {Gdc}d2 {g}f2 | {Gdc}d4||

